public/webclip.svg

<svg width="256" height="256" viewBox="0 0 256 256" fill="none" xmlns="http://www.w3.org/2000/svg">
<g clip-path="url(#clip0_1_961)">
<path d="M216.611 21.6129L209.712 25.2961L205.865 32.1589L202.215 25.1935L195.412 21.3227L202.318 17.6396L206.158 10.7767L209.815 17.7422L216.611 21.6129Z" fill="white"/>
<path d="M209.814 17.7436L216.611 21.6129L209.711 25.2947L205.867 32.159L202.216 25.1921L195.412 21.3227L202.319 17.641L206.159 10.7767L209.814 17.7436ZM205.679 19.5187L205.127 20.5041L204.131 21.0358L203.388 21.4281L205.101 22.4032L205.625 23.4071L205.977 24.0776L206.351 23.4132L206.903 22.4278L207.899 21.8999L208.638 21.5038L207.91 21.0876L206.929 20.5288L206.404 19.5324L206.049 18.8543L205.679 19.5187Z" fill="white"/>
<path d="M181.486 42.4105L170.067 48.5067L163.721 59.8453L157.679 48.3371L146.439 41.9308L157.85 35.8422L164.204 24.5037L170.238 36.0118L181.486 42.4105Z" fill="white"/>
<path d="M170.239 36.0131L181.488 42.4108L170.068 48.5057L163.721 59.8457L157.68 48.3362L146.439 41.931L157.851 35.8435L164.205 24.5037L170.239 36.0131ZM160.659 38.7104L159.663 39.2384L154.408 42.0401L160.566 45.5509L161.09 46.5473L163.825 51.7603L167.256 45.6425L173.508 42.3016L167.353 38.8021L166.825 37.8019L164.087 32.5851L160.659 38.7104Z" fill="white"/>
<path d="M254.185 143.961C254.185 143.961 115.241 136.724 13.7475 251.325C13.7475 251.325 11.0104 219.555 0.922664 183.691L93.3008 78.3016C93.3008 78.3016 45.5534 90.4458 2.2073 89.8524C2.2073 89.8524 13.5741 70.8113 24.5738 39.4992C24.5738 39.4992 73.5166 56.1665 122.985 34.4475L142.033 62.3007L71.35 156.916C72.4669 156.291 170.131 101.989 254.185 143.961Z" fill="url(#paint0_linear_1_961)"/>
</g>
<defs>
<linearGradient id="paint0_linear_1_961" x1="10.6723" y1="181.525" x2="229.338" y2="184.207" gradientUnits="userSpaceOnUse">
<stop stop-color="#D8AE6B"/>
<stop offset="1" stop-color="#1AD079"/>
</linearGradient>
<clipPath id="clip0_1_961">
<rect width="252.695" height="243.16" fill="white" transform="translate(3.32861 8) rotate(0.784325)"/>
</clipPath>
</defs>
</svg>

<svg xmlns="http://www.w3.org/2000/svg" width="256" height="256" fill="none" viewBox="0 0 256 256"><g clip-path="url(#a)"><path fill="#fff" d="m216.611 21.613-6.899 3.683-3.847 6.863-3.65-6.965-6.803-3.871 6.906-3.683 3.84-6.863 3.657 6.965z"/><path fill="#fff" d="m209.814 17.744 6.797 3.869-6.9 3.682-3.844 6.864-3.651-6.967-6.804-3.87 6.907-3.681 3.84-6.864zm-4.135 1.775-.552.985-.996.532-.743.392 1.713.975.524 1.004.352.67.374-.664.552-.985.996-.528.739-.396-.728-.416-.981-.56-.525-.996-.355-.678zM181.486 42.41l-11.419 6.097-6.346 11.338-6.042-11.508-11.24-6.406 11.411-6.089 6.354-11.338 6.034 11.508z"/><path fill="#fff" d="m170.239 36.013 11.249 6.398-11.42 6.095-6.347 11.34-6.041-11.51-11.241-6.405 11.412-6.087 6.354-11.34zm-9.58 2.697-.996.528-5.255 2.802 6.158 3.51.524.997 2.735 5.213 3.431-6.117 6.252-3.341-6.155-3.5-.528-1-2.738-5.217z"/><path fill="url(#b)" d="M254.185 143.961s-138.944-7.237-240.437 107.364c0 0-2.738-31.77-12.825-67.634L93.3 78.301S45.553 90.447 2.207 89.853c0 0 11.367-19.04 22.367-50.353 0 0 48.943 16.667 98.411-5.052l19.048 27.854-70.683 94.615c1.117-.625 98.781-54.927 182.835-12.955"/></g><defs><linearGradient id="b" x1="10.672" x2="229.338" y1="181.525" y2="184.207" gradientUnits="userSpaceOnUse"><stop stop-color="#d8ae6b"/><stop offset="1" stop-color="#1ad079"/></linearGradient><clipPath id="a"><path fill="#fff" d="m3.329 8 252.67 3.459-3.328 243.137-252.67-3.459z"/></clipPath></defs></svg>
